app/assets/images/heroicon/solid/bug-ant.svg

<svg width="24" height="24" viewBox="0 0 24 24" fill="none" xmlns="http://www.w3.org/2000/svg">
<path fill-rule="evenodd" clip-rule="evenodd" d="M8.47762 1.6008C8.83616 1.80821 8.95868 2.267 8.75128 2.62555C8.55271 2.96881 8.40712 3.34624 8.32551 3.7471C8.38406 3.80457 8.44396 3.86068 8.50514 3.91537C9.32957 2.90013 10.5885 2.25 12.0002 2.25C13.4129 2.25 14.6728 2.90117 15.4972 3.91782C15.5579 3.86365 15.6173 3.80808 15.6754 3.75117C15.594 3.34879 15.4481 2.96997 15.2488 2.62555C15.0414 2.267 15.1639 1.80821 15.5225 1.6008C15.881 1.39339 16.3398 1.51591 16.5472 1.87446C16.9024 2.48842 17.137 3.18135 17.2183 3.91994C17.2416 4.13185 17.1737 4.34368 17.0314 4.50247C16.7896 4.77241 16.5263 5.02277 16.2442 5.2509C16.41 5.72038 16.5002 6.22519 16.5002 6.75C16.5002 6.95356 16.4866 7.15434 16.4602 7.35141C16.3543 8.14315 15.7073 8.6458 15.0428 8.75426C14.8614 8.78388 14.6791 8.81089 14.496 8.83526C14.6477 9.06238 14.7692 9.31137 14.8549 9.57652C16.1695 9.41561 17.4498 9.14501 18.6867 8.77423C18.6212 7.88092 18.5053 7.00184 18.3417 6.13978C18.2645 5.73282 18.5319 5.34034 18.9388 5.26314C19.3458 5.18595 19.7383 5.45327 19.8155 5.86022C20.0269 6.97505 20.1636 8.11609 20.2201 9.27786C20.2365 9.61528 20.0254 9.92203 19.7043 10.0271C18.1774 10.5268 16.5854 10.882 14.9444 11.0766C14.8703 11.4573 14.7242 11.8123 14.5208 12.1269C16.5869 12.336 18.5788 12.7993 20.464 13.4853C20.7756 13.5987 20.9758 13.9033 20.9562 14.2344C20.8278 16.4041 20.4197 18.4994 19.7674 20.4842C19.638 20.8777 19.2142 21.0918 18.8207 20.9625C18.4272 20.8332 18.213 20.4093 18.3424 20.0158C18.8983 18.3245 19.2654 16.5472 19.4187 14.7085C18.9182 14.5401 18.4101 14.3883 17.895 14.2537C17.9627 14.4883 17.9993 14.738 17.9993 15C17.9993 18.9558 15.4775 22.5 11.9993 22.5C8.52108 22.5 5.99928 18.9558 5.99928 15C5.99928 14.7382 6.03584 14.4886 6.10348 14.2541C5.58888 14.3886 5.08127 14.5403 4.58128 14.7085C4.73457 16.5472 5.10172 18.3245 5.65763 20.0158C5.78697 20.4093 5.57282 20.8332 5.17932 20.9625C4.78582 21.0918 4.36197 20.8777 4.23263 20.4842C3.58026 18.4994 3.17221 16.4041 3.0438 14.2344C3.02421 13.9033 3.22437 13.5987 3.53602 13.4853C5.12188 12.9082 6.78302 12.4887 8.50042 12.2456C8.50368 12.2451 8.50694 12.2446 8.5102 12.2442C8.83115 12.1989 9.15404 12.1597 9.47876 12.1269C9.27538 11.8123 9.12926 11.4573 9.05515 11.0766C7.4142 10.882 5.82214 10.5268 4.29529 10.0271C3.97423 9.92203 3.76304 9.61528 3.77946 9.27786C3.83598 8.11609 3.97265 6.97505 4.18412 5.86023C4.26132 5.45327 4.6538 5.18595 5.06076 5.26314C5.46772 5.34034 5.73504 5.73282 5.65784 6.13978C5.49432 7.00184 5.37836 7.88092 5.31284 8.77423C6.54977 9.14502 7.83017 9.41561 9.14473 9.57653C9.23046 9.31134 9.35209 9.06232 9.50389 8.8352C9.32092 8.81085 9.13878 8.78386 8.95749 8.75426C8.29303 8.6458 7.64601 8.14315 7.54009 7.35141C7.51373 7.15434 7.50016 6.95356 7.50016 6.75C7.50016 6.22408 7.59068 5.71823 7.75718 5.24791C7.47455 5.01902 7.21083 4.76779 6.96868 4.49691C6.8266 4.33796 6.75887 4.12606 6.78244 3.91417C6.86433 3.17773 7.09864 2.48682 7.45287 1.87446C7.66028 1.51591 8.11907 1.39339 8.47762 1.6008Z" fill="#0F172A"/>
</svg>

<svg xmlns="http://www.w3.org/2000/svg" viewBox="0 0 24 24" fill="currentColor" aria-hidden="true">
  <path fill-rule="evenodd" d="M8.478 1.6a.75.75 0 01.273 1.025 3.72 3.72 0 00-.425 1.122c.058.057.118.114.18.168A4.491 4.491 0 0112 2.25c1.413 0 2.673.651 3.497 1.668.06-.054.12-.11.178-.167a3.717 3.717 0 00-.426-1.126.75.75 0 111.298-.75 5.22 5.22 0 01.671 2.045.75.75 0 01-.187.582c-.241.27-.505.52-.787.749a4.495 4.495 0 01.216 2.1c-.106.792-.753 1.295-1.417 1.403-.182.03-.364.057-.547.081.152.227.273.476.359.741a23.122 23.122 0 003.832-.802 23.241 23.241 0 00-.345-2.634.75.75 0 011.474-.28c.21 1.115.348 2.256.404 3.418a.75.75 0 01-.516.749c-1.527.5-3.119.855-4.76 1.05-.074.38-.22.735-.423 1.05a24.61 24.61 0 015.943 1.358.75.75 0 01.492.75 24.665 24.665 0 01-1.189 6.25.75.75 0 01-1.425-.47 23.141 23.141 0 001.077-5.307c-.5-.168-1.009-.32-1.524-.454.068.234.104.484.104.746 0 3.956-2.521 7.5-6 7.5-3.478 0-6-3.544-6-7.5 0-.262.037-.511.104-.746-.514.134-1.022.286-1.522.454a23.14 23.14 0 001.077 5.308.75.75 0 01-1.425.468 24.663 24.663 0 01-1.19-6.25.75.75 0 01.493-.749 24.593 24.593 0 014.964-1.24h.01c.321-.046.644-.085.969-.118a2.982 2.982 0 01-.424-1.05 24.614 24.614 0 01-4.76-1.05.75.75 0 01-.516-.75c.057-1.161.194-2.302.405-3.417a.75.75 0 011.474.28c-.164.862-.28 1.74-.345 2.634 1.237.37 2.517.641 3.832.802.085-.265.207-.514.359-.74a18.732 18.732 0 01-.547-.082c-.664-.108-1.311-.611-1.417-1.403a4.535 4.535 0 01.217-2.103 6.788 6.788 0 01-.788-.751.75.75 0 01-.187-.583 5.22 5.22 0 01.67-2.04.75.75 0 011.026-.273z" clip-rule="evenodd"/>
</svg>
